X: 3
T:Green Mountain
M:4/4
L:1/8
Q:175
R:Reel
K:D
B|AF (3FEF AFEF|DF (3FEF ABde|f2df efdB|Adfd edBd|AF (3FEF AFEF|DF (3FE
F
 ABde|f2df efdB|AFEF D3 :||
e|fa (3afa bfaf|defd e2de|f2df efdB|Adfd edBd|fa (3afa bfaf|defd e2de|f
